svg_80x80/nativec.svg

<svg viewBox="0 0 80 80" xmlns="http://www.w3.org/2000/svg">
<rect width="100%" height="100%" fill="white"/>
<path d="M69.0037 28.7993V51.2006C68.9958 52.8882 68.5433 54.544 67.6916 56.0009L40.002 40L67.6996 23.999C68.5506 25.4559 69.0005 27.1121 69.0037 28.7993V28.7993Z" fill="#00599C"/>
<path d="M67.6994 23.9991L40.0017 40.0001L12.3281 56.001C11.468 54.5468 11.0097 52.8902 11 51.2007V28.7994C11.0003 27.1145 11.4441 25.4593 12.2867 24.0002C13.1293 22.541 14.3411 21.3294 15.8003 20.4869L35.2014 9.28623C36.6609 8.44361 38.3165 8 40.0017 8C41.687 8 43.3425 8.44361 44.802 9.28623L64.2032 20.4869C65.6601 21.326 66.8669 22.5384 67.6994 23.9991V23.9991Z" fill="#659AD2"/>
<path d="M40.0018 39.9999L67.6914 56.0008C66.8501 57.4417 65.6479 58.6384 64.2032 59.473L44.8021 70.7137C43.3426 71.5563 41.687 71.9999 40.0018 71.9999C38.3165 71.9999 36.661 71.5563 35.2015 70.7137L15.8003 59.513C14.3635 58.6806 13.1672 57.4898 12.3281 56.0568L40.0018 39.9999Z" fill="#004482"/>
<path d="M56.8023 49.7205C54.6668 53.4112 51.3736 56.2945 47.433 57.9234C43.4924 59.5523 39.1245 59.836 35.0064 58.7305C30.8882 57.6249 27.2497 55.1918 24.6547 51.8084C22.0598 48.4249 20.6533 44.2799 20.6533 40.016C20.6533 35.752 22.0598 31.607 24.6547 28.2236C27.2497 24.8401 30.8882 22.407 35.0064 21.3015C39.1245 20.1959 43.4924 20.4796 47.433 22.1085C51.3736 23.7374 54.6668 26.6207 56.8023 30.3114L48.3058 35.1997C48.1938 35.0023 48.0738 34.8103 47.9458 34.6236C46.7814 32.8948 45.086 31.592 43.1157 30.9118C41.1454 30.2317 39.0073 30.2113 37.0244 30.8536C35.0415 31.496 33.3215 32.7662 32.1242 34.4724C30.927 36.1786 30.3175 38.2281 30.3879 40.3113C30.4583 42.3945 31.2048 44.3981 32.5146 46.0196C33.8243 47.6411 35.6262 48.7922 37.6479 49.2992C39.6697 49.8062 41.8016 49.6414 43.7214 48.8297C45.6413 48.0181 47.2448 46.6037 48.2898 44.8002L56.8023 49.7205Z" fill="white"/>
</svg>

<svg xmlns="http://www.w3.org/2000/svg" viewBox="0 0 80 80">
  <rect width="100%" height="100%" fill="#fff"/>
  <path fill="#00599C" d="M69 28.8v22.4c0 1.7-.5 3.3-1.3 4.8L40 40l27.7-16a9.6 9.6 0 0 1 1.3 4.8Z"/>
  <path fill="#659AD2" d="M67.7 24 40 40 12.3 56a9.5 9.5 0 0 1-1.3-4.8V28.8a9.6 9.6 0 0 1 4.8-8.3L35.2 9.3a9.6 9.6 0 0 1 9.6 0l19.4 11.2c1.5.8 2.7 2 3.5 3.5Z"/>
  <path fill="#004482" d="m40 40 27.7 16c-.8 1.4-2 2.6-3.5 3.5L44.8 70.7a9.6 9.6 0 0 1-9.6 0L15.8 59.5c-1.4-.8-2.6-2-3.5-3.4L40 40Z"/>
  <path fill="#fff" d="M56.8 49.7a19.4 19.4 0 1 1 0-19.4l-8.5 4.9a9.6 9.6 0 1 0 0 9.6l8.5 5Z"/>
</svg>
